X:200
T: WARUM BIST DU DENN SO TRAURIG
N: E0782
O: Europa, Mitteleuropa, Deutschland
R: Abschieds - Lied, Liebe
M: 4/4
L: 1/8
K: F
 | cdcBA2A2 | cBABc2fd |
cdcBA2A2 | cBABc4 |
A3ccBdB | G3BAcfc |
A3cdcBA | GFGAF4

